docs/icons/gitb.svg

<svg xmlns="http://www.w3.org/2000/svg" height="512" viewBox="0 0 730 512" fill="none" width="300" xmlns:v="https://vecta.io/nano"><path fill-rule="evenodd" d="M411.148 6.39l238.387 119.193c11.016 5.508 11.188 21.168.296 26.916L340.222 315.904a60.53 60.53 0 0 1-55.319.608L90.512 219.316c-23.682-9.514-50.161 7.862-50.161 34.035a55.56 55.56 0 0 0 30.71 49.691l194.892 97.445c11.897-12.113 28.462-19.627 46.783-19.627 17.797 0 33.937 7.09 45.751 18.599l242.746-128.115c-.665-3.746-1.012-7.602-1.012-11.539 0-36.213 29.357-65.569 65.57-65.569s65.57 29.356 65.57 65.569-29.357 65.57-65.57 65.57c-17.707 0-33.775-7.018-45.573-18.425L377.337 435.137c.637 3.669.969 7.442.969 11.293 0 36.213-29.357 65.57-65.57 65.57s-65.57-29.357-65.57-65.57c0-3.349.251-6.64.736-9.855L50.187 337.719C19.429 322.34 0 290.903 0 256.514V237.36c0-26.19 14.495-50.229 37.658-62.452L355.829 6.998c17.263-9.111 37.86-9.337 55.319-.608zm-98.412 465.259c13.928 0 25.219-11.291 25.219-25.219s-11.291-25.219-25.219-25.219-25.219 11.291-25.219 25.219 11.291 25.219 25.219 25.219zM691.01 259.805c0 13.929-11.291 25.22-25.219 25.22s-25.219-11.291-25.219-25.22 11.291-25.219 25.219-25.219 25.219 11.291 25.219 25.219z" fill="#fff"/></svg>

<svg width="" height="512" viewBox="0 0 730 512" fill="none" xmlns="http://www.w3.org/2000/svg">
<path fill-rule="evenodd" clip-rule="evenodd" d="M411.148 6.38992L649.535 125.583C660.551 131.091 660.723 146.751 649.831 152.499L340.222 315.904C322.959 325.015 302.362 325.241 284.903 316.512L90.5121 219.316C66.8302 209.802 40.3508 227.178 40.3508 253.351C40.3508 274.394 52.2398 293.631 71.0611 303.042L265.953 400.487C277.85 388.374 294.415 380.86 312.736 380.86C330.533 380.86 346.673 387.95 358.487 399.459L601.233 271.344C600.568 267.598 600.221 263.742 600.221 259.805C600.221 223.592 629.578 194.236 665.791 194.236C702.004 194.236 731.361 223.592 731.361 259.805C731.361 296.019 702.004 325.375 665.791 325.375C648.084 325.375 632.016 318.357 620.218 306.95L377.337 435.137C377.974 438.806 378.306 442.579 378.306 446.43C378.306 482.643 348.949 512 312.736 512C276.523 512 247.166 482.643 247.166 446.43C247.166 443.081 247.417 439.79 247.902 436.575L50.187 337.719C19.4291 322.34 0 290.903 0 256.514V237.36C0 211.17 14.4951 187.131 37.6576 174.908L355.829 6.99775C373.092 -2.11324 393.689 -2.33956 411.148 6.38992ZM312.736 471.649C326.664 471.649 337.955 460.358 337.955 446.43C337.955 432.502 326.664 421.211 312.736 421.211C298.808 421.211 287.517 432.502 287.517 446.43C287.517 460.358 298.808 471.649 312.736 471.649ZM691.01 259.805C691.01 273.734 679.719 285.025 665.791 285.025C651.863 285.025 640.572 273.734 640.572 259.805C640.572 245.877 651.863 234.586 665.791 234.586C679.719 234.586 691.01 245.877 691.01 259.805Z" fill="white"/>
</svg>
